X: 500
%
U:~=!turn!
T: Mrs. Wilson
C:
O:Scotland
B:Keith Norman MacDonald : "The Skye collection of the best reels & strathspeys extant" : 1887
Z:Ralph Palmer
R:Reel
M:C
L:1/8
K:Bb
d | LB2 FB DBFd | B2 (G/F/E/D/) ECCd | LB2 FB DBFB | (E//F/<LG) F>D LB,3 d | LB2 FB DBFd |
B2 (G/F/E/D/) ECCd | LB2 FB DBFB | egf>d LB3 || b | f2 df Bfdb | f2 (e/d/c/B/) ALc2 b | f2 df Bfdf |
bgfd LB3 b | f2 df Bfdb | f2 (e/d/c/B/) A Lc2 e | (3dcB (3cBA (3BAG (3FED | (E//F/<G) F>D B,3 |]


